X: 11
T: The FLOWERS OF EDINBURGH
%R: reel, hornpipe
B: Jean White "100 Popular Hornpipes, Reels, Jigs and Country Dances", Boston 1880 p.5
F: http://www.loc.gov/resource/sm1880.09124.0#seq-1
Z: 2014 John Chambers <jc:trillian.mit.edu>
M: C|
L: 1/8
K: G
% - - - - - - - - - - - - - - - - - - - - - - - - - - - - -
(3(GFE) |\
D2DE G2GA | BGBd cBAG | FGEF DEFG | AFdF E2 (3(GFE) |
D2 (3(DEF) G2GA | BGBd efge | dcBA BAGA | B2G2 G2 :|
|: (3(def) |\
gfga gbag | fefg fagf | edef gfed | B2ef e2 (3(gfe) |
dBGB d2cB | cdef g2fe | dcBA BAGA | B2G2 G2 H:|
% - - - - - - - - - - - - - - - - - - - - - - - - - - - - -

%%sep 1 1 500
%%sep 1 1 500
